head-minus.svg

<svg fill="currentColor" viewBox="0 0 24 24"><path d="M13 3C9.2 3 6.2 5.9 6 9.7l-1.9 2.5c-.2.3 0 .8.4.8H6v3c0 1.1.9 2 2 2h1v3h7v-4.7c2.4-1.1 4-3.5 4-6.3 0-3.9-3.1-7-7-7m4 7H9V8h8z"/></svg>

<svg  viewBox="0 0 24 24" fill="currentColor"><path  d="M13 3C9.2 3 6.2 5.9 6 9.7L4.1 12.2C3.9 12.5 4.1 13 4.5 13H6V16C6 17.1 6.9 18 8 18H9V21H16V16.3C18.4 15.2 20 12.8 20 10C20 6.1 16.9 3 13 3M17 10H9V8H17V10Z"/></svg>
